X: 3043
T: Bay Tree, The
R: waltz
M: 3/4
K: Gmajor
|:DG|BA B2- BA|d3 d BA|AG FG Ad|BA- AB GA|
B3 B AB|d2 dB BA|AG FG GB|1 d2 FD:|2 D4 D2||
|:B2 GD GB|c2 EG ce|d2 FA dg|e3 d- dc|
B2 GD DB|c2 EG Ge|d2 FA Ag|1 e2 dd- dc:|2 e2 d2||

